X:30
T:Boyne Water
C:Trad
R:polka 32 march
S:Fiddler Locke
M:4/4
L:1/8
Q:2/4=100
K:D
|:A2 B2c2|d2d2 d2cB|AGFE D3A|d2dd d3e|f2d2 B2c2|
d2d2 d2cB|AGFE D2EF|G2FE B2A2|1E2:|2E3- E2||
|:DE|F2D2 E2C2|D2D2 D2EG|F2D2 D2EG|F2D2 D2EF|
G2E2 F2D2|E2E2 A2AG|FED2 F2E2|1D4 D2:|2D2|]

